lib/preview/nrk-logo-preview-nrk-finnmark-with-bg.svg

<svg width="123" height="24" viewBox="0 0 123 24" fill="none" xmlns="http://www.w3.org/2000/svg">
<rect width="123" height="24" fill="#1767CE"/>
<path d="M6 17.9987V5.99984H10V17.9987H6ZM15.2438 7.90953L17.5081 17.9987H13.1992L10.4955 5.99984H12.9122C13.4663 5.99265 14.0041 6.188 14.4245 6.54914C14.8456 6.89513 15.0849 7.37545 15.2438 7.90953ZM18 17.9987V5.99984H22V17.9987H18ZM25.0105 10.5628C24.5862 10.567 24.1687 10.456 23.8025 10.2417C23.4412 10.0329 23.1411 9.73271 22.9323 9.37135C22.7178 9.00508 22.6068 8.58751 22.611 8.16307C22.6061 7.74121 22.7172 7.32613 22.9323 6.96318C23.1433 6.60574 23.4431 6.30884 23.8025 6.10127C24.1689 5.88725 24.5862 5.77626 25.0105 5.78013C25.4322 5.77559 25.8471 5.88668 26.2102 6.10127C26.566 6.31066 26.8626 6.60731 27.072 6.96318C27.2868 7.32623 27.3979 7.74124 27.3933 8.16307C27.3973 8.58748 27.2863 9.00498 27.072 9.37135C26.8649 9.73112 26.5679 10.031 26.2102 10.2417C25.8471 10.4567 25.4324 10.5678 25.0105 10.5628ZM28 17.9987V5.99984H32V17.9987H28ZM36.9737 12.557C36.9848 12.5686 37.0693 12.7066 37.2272 12.971C37.3851 13.2354 37.5906 13.5734 37.8439 13.985C38.0974 14.3965 38.3649 14.833 38.6463 15.2947C38.9278 15.7565 39.1926 16.1931 39.4408 16.6045C39.6881 17.0159 39.9697 17.4807 40.2857 17.9987H35.9598C35.6893 17.5593 35.4441 17.1622 35.2245 16.8073C35.0048 16.4524 34.7713 16.0693 34.5238 15.6581C34.2758 15.2472 34.0306 14.8473 33.7882 14.4582C33.5458 14.0691 33.3375 13.7284 33.1633 13.4358C32.9883 13.1431 32.8671 12.9459 32.7997 12.8443C32.6325 12.5922 32.5336 12.301 32.5127 11.9993C32.5294 11.7097 32.6226 11.4297 32.7828 11.1879C32.8503 11.0752 32.9743 10.8752 33.1545 10.5879C33.3348 10.3006 33.546 9.9598 33.7882 9.56547C34.0304 9.17114 34.2756 8.76835 34.5238 8.35712C34.772 7.94589 35.0055 7.55998 35.2245 7.19945C35.4445 6.8393 35.6897 6.43933 35.9598 5.99956H40.2857L36.9396 11.4582C36.8361 11.6203 36.7777 11.8071 36.7706 11.9993C36.7818 12.2011 36.8528 12.3951 36.9737 12.557Z" fill="white"/>
<g clip-path="url(#clip0_5919_2970)">
<path d="M44 6.00058H51.9101V7.48795H45.7747V11.5782H50.4904L50.3044 13.0487H45.7747V18.001H44V6.00058ZM55.0454 5.67099C54.8708 5.56394 54.6764 5.51042 54.4623 5.51042C54.2482 5.51042 54.051 5.56394 53.8707 5.67099C53.6905 5.77804 53.5468 5.91889 53.4397 6.09354C53.3327 6.26819 53.2792 6.46257 53.2792 6.67666C53.2792 6.89075 53.3327 7.08794 53.4397 7.26823C53.5468 7.44851 53.6905 7.58936 53.8707 7.69077C54.051 7.79219 54.2482 7.84289 54.4623 7.84289C54.6764 7.84289 54.8708 7.79219 55.0454 7.69077C55.2201 7.58936 55.3581 7.44851 55.4595 7.26823C55.5609 7.08794 55.6116 6.89075 55.6116 6.67666C55.6116 6.46257 55.5609 6.26819 55.4595 6.09354C55.3581 5.91889 55.2201 5.77804 55.0454 5.67099ZM53.5665 18.001H55.2905V9.21195L53.5665 9.46548V18.001ZM64.5528 9.54999C64.1246 9.31336 63.5837 9.19505 62.9302 9.19505C62.4457 9.19505 61.964 9.27111 61.4851 9.42323C61.0062 9.57534 60.5527 9.79225 60.1245 10.074C59.9611 10.181 59.8033 10.2993 59.6512 10.4204V9.21195L57.9272 9.46548V18.001H59.6512V11.581C59.8174 11.4853 59.9864 11.3951 60.1667 11.3162C60.409 11.2092 60.6512 11.1162 60.8935 11.0374C61.1358 10.9585 61.378 10.8993 61.6203 10.8599C61.8626 10.8205 62.0964 10.8007 62.3217 10.8007C62.6372 10.8007 62.9077 10.843 63.133 10.9275C63.3584 11.012 63.5443 11.1388 63.6908 11.3078C63.8373 11.4768 63.9443 11.6909 64.0119 11.9501C64.0795 12.2092 64.1133 12.5135 64.1133 12.8628V18.001H65.8373V12.5078C65.8373 11.7416 65.7303 11.1162 65.5162 10.6317C65.3021 10.1472 64.981 9.78662 64.5528 9.54999ZM75.0151 9.54999C74.5869 9.31336 74.0461 9.19505 73.3925 9.19505C72.908 9.19505 72.4263 9.27111 71.9474 9.42323C71.4685 9.57534 71.015 9.79225 70.5868 10.074C70.4234 10.181 70.2656 10.2993 70.1135 10.4204V9.21195L68.3895 9.46548V18.001H70.1135V11.581C70.2769 11.4853 70.4488 11.3951 70.629 11.3162C70.8713 11.2092 71.1136 11.1162 71.3558 11.0374C71.5981 10.9585 71.8403 10.8993 72.0826 10.8599C72.3249 10.8205 72.5587 10.8007 72.784 10.8007C73.0995 10.8007 73.37 10.843 73.5953 10.9275C73.8207 11.012 74.0066 11.1388 74.1531 11.3078C74.2996 11.4768 74.4066 11.6909 74.4742 11.9501C74.5418 12.2092 74.5756 12.5135 74.5756 12.8628V18.001H76.2996V12.5078C76.2996 11.7416 76.1926 11.1162 75.9785 10.6317C75.7644 10.1472 75.4433 9.78662 75.0151 9.54999ZM90.5311 9.54999C90.1255 9.31336 89.624 9.19505 89.0268 9.19505C88.5648 9.19505 88.1198 9.27111 87.6916 9.42323C87.2634 9.57534 86.8577 9.79225 86.4746 10.074C86.2662 10.2261 86.0662 10.3979 85.8746 10.581C85.6774 10.1331 85.3901 9.79225 85.0042 9.56689C84.5985 9.33026 84.0915 9.21195 83.483 9.21195C83.0323 9.21195 82.59 9.28801 82.1562 9.44013C81.7224 9.59224 81.3139 9.80634 80.9308 10.0824C80.8097 10.1697 80.6913 10.2655 80.5758 10.3641V9.21195L78.8518 9.46548V18.001H80.5758V11.5726C80.7815 11.4402 80.9928 11.3162 81.2097 11.2148C81.4857 11.0853 81.7646 10.9867 82.0463 10.919C82.328 10.8514 82.5984 10.8176 82.8576 10.8176C83.1506 10.8176 83.3957 10.8599 83.5928 10.9444C83.79 11.0289 83.9562 11.1529 84.0915 11.3162C84.2267 11.4796 84.3253 11.6937 84.3872 11.9585C84.4492 12.2233 84.4802 12.5304 84.4802 12.8797V18.001H86.2042V12.5247C86.2042 12.1726 86.1817 11.8515 86.1394 11.5585C86.3394 11.4289 86.5394 11.3106 86.7451 11.2064C87.0155 11.0712 87.2916 10.9698 87.5733 10.9021C87.855 10.8345 88.131 10.8007 88.4015 10.8007C88.6719 10.8007 88.9254 10.843 89.1282 10.9275C89.3311 11.012 89.5001 11.136 89.6353 11.2993C89.7705 11.4627 89.8691 11.6768 89.9311 11.9416C89.993 12.2064 90.024 12.5135 90.024 12.8628V18.001H91.748V12.5078C91.748 11.7416 91.6466 11.1162 91.4438 10.6317C91.241 10.1472 90.9367 9.78662 90.5311 9.54999ZM101.855 16.9192C101.946 16.908 102.041 16.8854 102.143 16.8516L101.957 17.9841C101.9 18.0066 101.836 18.0263 101.762 18.0432C101.689 18.0601 101.608 18.0798 101.517 18.1024C101.427 18.1249 101.334 18.139 101.238 18.1446C101.143 18.1503 101.044 18.1531 100.943 18.1531C100.582 18.1531 100.261 18.0939 99.9793 17.9756C99.6976 17.8573 99.4779 17.6657 99.3201 17.4009C99.2356 17.2601 99.1764 17.0939 99.137 16.9023C99.03 17.0263 98.9201 17.1474 98.8046 17.2573C98.4947 17.5503 98.1398 17.7756 97.7398 17.9334C97.3398 18.0911 96.8637 18.17 96.3116 18.17C95.7144 18.17 95.2158 18.0573 94.8157 17.832C94.4157 17.6066 94.1171 17.3108 93.9199 16.9446C93.7228 16.5784 93.6242 16.1812 93.6242 15.753C93.6242 15.3023 93.7509 14.8882 94.0044 14.5107C94.258 14.1332 94.6439 13.8206 95.1622 13.5727C95.6806 13.3248 96.3341 13.1783 97.1229 13.1332L99.0976 13.0008V12.5783C99.0976 12.2515 99.0666 11.967 98.999 11.7247C98.9314 11.4824 98.8187 11.2824 98.6609 11.1247C98.5032 10.9669 98.2863 10.8486 98.0102 10.7697C97.7341 10.6909 97.3933 10.6514 96.9877 10.6514C96.7623 10.6514 96.5341 10.6599 96.3031 10.6768C96.0721 10.6937 95.8383 10.7247 95.6017 10.7697C95.3651 10.8148 95.12 10.8712 94.8665 10.9388C94.6129 11.0064 94.3453 11.0909 94.0636 11.1923L94.2664 9.75563C94.5481 9.64295 94.8439 9.54436 95.1538 9.45985C95.4637 9.37534 95.7932 9.31055 96.1426 9.26547C96.4919 9.2204 96.8468 9.19787 97.2074 9.19787C97.7032 9.19787 98.1483 9.24294 98.5426 9.33308C98.937 9.42323 99.2779 9.55281 99.5652 9.72183C99.8525 9.89085 100.086 10.0993 100.267 10.3472C100.447 10.5951 100.582 10.8824 100.672 11.2092C100.762 11.536 100.807 11.8965 100.807 12.2909L100.774 15.7727C100.762 16.1896 100.824 16.4882 100.96 16.6685C101.095 16.8488 101.315 16.939 101.619 16.939C101.686 16.939 101.765 16.9333 101.855 16.9221V16.9192ZM99.0863 15.9079L99.0948 14.2318H97.6158C97.0637 14.2318 96.6243 14.2769 96.2975 14.367C95.9707 14.4572 95.7341 14.598 95.5876 14.7896C95.4411 14.9812 95.3679 15.246 95.3679 15.584C95.3679 15.8432 95.4242 16.0657 95.5369 16.2516C95.6496 16.4375 95.8158 16.5812 96.0355 16.6826C96.2552 16.784 96.5228 16.8347 96.8384 16.8347C97.0862 16.8347 97.3257 16.8122 97.5567 16.7671C97.7877 16.7221 98.0074 16.6488 98.2159 16.5474C98.4243 16.446 98.6215 16.322 98.8074 16.1756C98.906 16.0967 98.999 16.0065 99.0891 15.9108L99.0863 15.9079ZM107.281 9.319C106.965 9.40351 106.667 9.53309 106.385 9.70774C106.103 9.8824 105.839 10.0937 105.591 10.3416C105.551 10.381 105.512 10.4261 105.472 10.4683V9.20913L103.748 9.46266V17.9982H105.472V11.612C105.602 11.5219 105.734 11.4374 105.87 11.3641C106.044 11.2684 106.219 11.1867 106.394 11.1191C106.568 11.0514 106.746 10.9923 106.926 10.9416C107.106 10.8909 107.295 10.8543 107.492 10.8317C107.689 10.8092 107.895 10.8036 108.109 10.8148L108.312 9.22604C107.94 9.2035 107.596 9.23449 107.281 9.319ZM115.09 17.9982H117.321L113.222 13.3783L117.236 9.37815H115.123L112.23 12.5557H111.608V5.23999L109.884 5.49352V18.001H111.608V13.86H111.636L115.09 18.001V17.9982Z" fill="#D4EEFC"/>
</g>
<defs>
<clipPath id="clip0_5919_2970">
<rect width="74" height="14" fill="white" transform="translate(44 5)"/>
</clipPath>
</defs>
</svg>

<svg xmlns="http://www.w3.org/2000/svg" viewBox="0 0 123 24"><path fill="#1767CE" d="M0 0h123v24H0z"/><path fill="#fff" d="M6 17.999v-12h4v12H6Zm9.244-10.09L17.508 18H13.2l-2.704-12h2.417a2.276 2.276 0 0 1 1.512.55c.422.346.66.826.82 1.36ZM18 18v-12h4v12h-4Zm7.01-7.436a2.381 2.381 0 0 1-2.078-1.191 2.345 2.345 0 0 1-.321-1.209 2.301 2.301 0 0 1 .321-1.2 2.41 2.41 0 0 1 3.278-.862c.356.21.653.506.862.862.215.363.326.778.321 1.2a2.35 2.35 0 0 1-.321 1.208 2.4 2.4 0 0 1-.862.87 2.3 2.3 0 0 1-1.2.322ZM28 17.999v-12h4v12h-4Zm8.974-5.442c.01.012.095.15.253.414s.364.602.617 1.014a322.716 322.716 0 0 1 1.597 2.62c.247.41.529.876.845 1.394H35.96c-.27-.44-.516-.837-.736-1.192-.22-.355-.453-.738-.7-1.149-.248-.41-.493-.81-.736-1.2-.242-.389-.45-.73-.625-1.022a18.04 18.04 0 0 0-.363-.592 1.747 1.747 0 0 1-.287-.845c.016-.29.11-.57.27-.811.067-.113.191-.313.371-.6s.392-.628.634-1.023c.242-.394.488-.797.736-1.208l.7-1.158.736-1.2h4.326l-3.346 5.46a1.08 1.08 0 0 0-.17.54c.012.202.083.396.204.558Z"/><g clip-path="url(#a)"><path fill="#D4EEFC" d="M44 6h7.91v1.488h-6.135v4.09h4.715l-.186 1.47h-4.53v4.953H44v-12Zm11.045-.329a1.094 1.094 0 0 0-.583-.16c-.214 0-.411.053-.591.16a1.24 1.24 0 0 0-.431.423c-.107.174-.16.369-.16.583a1.15 1.15 0 0 0 .591 1.014c.18.101.377.152.591.152.214 0 .409-.05.583-.152.175-.102.313-.242.414-.423.102-.18.153-.377.153-.591 0-.214-.051-.409-.153-.583a1.19 1.19 0 0 0-.414-.423Zm-1.479 12.33h1.724v-8.79l-1.724.254v8.536ZM64.553 9.55c-.428-.237-.97-.355-1.623-.355-.484 0-.966.076-1.445.228a5.488 5.488 0 0 0-1.36.651 6.356 6.356 0 0 0-.474.346V9.212l-1.724.253v8.536h1.724v-6.42c.166-.096.335-.186.516-.265.242-.107.484-.2.727-.279a4.87 4.87 0 0 1 .726-.177c.243-.04.476-.06.702-.06.315 0 .586.043.811.127.225.085.411.212.558.38.146.17.253.384.32.643.069.26.102.564.102.913V18h1.724v-5.493c0-.766-.107-1.392-.32-1.876-.215-.485-.536-.845-.964-1.082Zm10.462 0c-.428-.237-.969-.355-1.623-.355-.484 0-.966.076-1.445.228a5.488 5.488 0 0 0-1.36.651 6.356 6.356 0 0 0-.474.346V9.212l-1.724.253v8.536h1.725v-6.42c.163-.096.335-.186.515-.265.242-.107.485-.2.727-.279a4.87 4.87 0 0 1 .727-.177c.242-.04.476-.06.701-.06.316 0 .586.043.811.127.226.085.412.212.558.38.147.17.254.384.321.643.068.26.102.564.102.913V18H76.3v-5.493c0-.766-.107-1.392-.322-1.876-.214-.485-.535-.845-.963-1.082Zm15.516 0c-.406-.237-.907-.355-1.504-.355-.462 0-.907.076-1.335.228a4.707 4.707 0 0 0-1.217.651 5.964 5.964 0 0 0-.6.507c-.198-.448-.485-.789-.87-1.014-.406-.237-.913-.355-1.522-.355-.45 0-.893.076-1.327.228a4.81 4.81 0 0 0-1.58.924V9.212l-1.724.253v8.536h1.724v-6.428a5.44 5.44 0 0 1 .634-.358c.276-.13.555-.228.836-.296.282-.068.552-.101.812-.101.293 0 .538.042.735.126.197.085.363.209.498.372.136.164.234.378.296.643.062.264.093.571.093.92v5.122h1.724v-5.476c0-.352-.022-.674-.065-.966.2-.13.4-.248.606-.353a3.87 3.87 0 0 1 .828-.304c.282-.067.558-.101.829-.101.27 0 .523.042.726.127.203.084.372.208.507.371.135.164.234.378.296.643.062.264.093.572.093.92v5.139h1.724v-5.493c0-.766-.101-1.392-.304-1.876-.203-.485-.507-.845-.913-1.082Zm11.324 7.37c.091-.012.186-.035.288-.068l-.186 1.132a1.343 1.343 0 0 1-.195.06 16.08 16.08 0 0 0-.245.058 1.51 1.51 0 0 1-.279.043 4.946 4.946 0 0 1-.295.008c-.361 0-.682-.06-.964-.177a1.365 1.365 0 0 1-.659-.575 1.58 1.58 0 0 1-.183-.499 4.98 4.98 0 0 1-.332.355c-.31.293-.665.519-1.065.676-.4.158-.876.237-1.428.237-.598 0-1.096-.113-1.496-.338a2.227 2.227 0 0 1-.896-.887 2.475 2.475 0 0 1-.296-1.192c0-.45.127-.865.38-1.242.254-.378.64-.69 1.158-.938.519-.248 1.172-.395 1.96-.44l1.976-.132v-.423c0-.326-.031-.611-.099-.853a1.337 1.337 0 0 0-.338-.6c-.158-.158-.375-.276-.65-.355a3.78 3.78 0 0 0-1.023-.119c-.226 0-.454.009-.685.026a6.157 6.157 0 0 0-.701.093 9.934 9.934 0 0 0-1.538.423l.202-1.437c.282-.113.578-.212.888-.296.31-.085.64-.15.989-.195.349-.045.704-.067 1.064-.067.496 0 .941.045 1.336.135.394.09.735.22 1.022.389.288.169.521.377.702.625.18.248.315.535.405.862.09.327.135.688.135 1.082l-.033 3.482c-.012.417.05.715.186.896.135.18.355.27.659.27.067 0 .146-.006.236-.017v-.003Zm-2.769-1.012.009-1.676h-1.48c-.551 0-.99.045-1.317.135-.327.09-.564.231-.71.423-.147.191-.22.456-.22.794 0 .26.056.482.169.668.113.186.279.33.498.43.22.102.488.153.803.153.248 0 .488-.023.719-.068.23-.045.45-.118.659-.22a2.762 2.762 0 0 0 .873-.637l-.003-.002Zm8.195-6.589a3.323 3.323 0 0 0-.896.389 4.4 4.4 0 0 0-.794.634c-.04.039-.079.084-.119.126V9.21l-1.724.254v8.535h1.724v-6.386a4.314 4.314 0 0 1 .922-.493 5.82 5.82 0 0 1 .532-.177 3.6 3.6 0 0 1 1.183-.127l.203-1.589a3.214 3.214 0 0 0-1.031.093Zm7.809 8.68h2.231l-4.099-4.62 4.014-4h-2.113l-2.893 3.177h-.622V5.24l-1.724.254V18h1.724V13.86h.028l3.454 4.141v-.003Z"/></g><defs><clipPath id="a"><path fill="#fff" d="M44 5h74v14H44z"/></clipPath></defs></svg>
